src/themes/standard/img/arrow.min.svg

<svg xmlns="http://www.w3.org/2000/svg" width="24" height="24"><style type="text/css">.icon-white{fill:#FFFFFF;}</style><path d="M1 12c0 6.1 4.9 11 11 11s11-4.9 11-11S18.1 1 12 1 1 5.9 1 12zm1.5 0c0-5.2 4.3-9.5 9.5-9.5s9.5 4.3 9.5 9.5-4.3 9.5-9.5 9.5-9.5-4.3-9.5-9.5zM13 16h-3l3-3H6v-2h7l-3-3h3l4 4-4 4z" class="icon-white"/></svg>

<svg viewBox="0 0 24 24" x="0" y="0" width="24" height="24" version="1.1" xmlns="http://www.w3.org/2000/svg" xml:space="preserve"><style type="text/css">
	.icon-white{fill:#FFFFFF;}
</style><path class="icon-white" d="M1 12c0 6.1 4.9 11 11 11 6.1 0 11-4.9 11-11 0-6.1-4.9-11-11-11C5.9 1 1 5.9 1 12ZM2.5 12c0-5.2 4.3-9.5 9.5-9.5S21.5 6.8 21.5 12 17.2 21.5 12 21.5 2.5 17.2 2.5 12ZM13 16H10l3-3h-7v-2h7L10 8h3L17 12 13 16Z"/></svg>
